X: 480
%
U:~=!turn!
T: Mrs. Linley
C:Duncan McIntyre
O:Scotland
B:Keith Norman MacDonald : "The Skye collection of the best reels & strathspeys extant" : 1887
Z:Ralph Palmer
R:Reel
M:C
L:1/8
K:C aeolian
G | c2 GE CEGc | dBGD B,DF=B | cGAF GFFD | ECFD ECC :| d | ecgc Gceg | fBdB dfBd |
ecec Gceg | dBfd eccd | ecGE CEGe | dBFD B,DF=B | cGAF GEFD | ECFD ECC |]


